assets/8_diamonds.svg

<svg width="822" height="1122" fill="none" xmlns="http://www.w3.org/2000/svg"><rect width="822" height="1122" rx="50" fill="#F1F7EE"/><path d="M343.977 1087h-6.6c-1 0-1.7-.47-2.1-1.4l-19.4-49.3v42.8h6.3c1 0 1.5.5 1.5 1.5v4.9c0 1-.5 1.5-1.5 1.5h-20.3c-1 0-1.5-.5-1.5-1.5v-4.9c0-1 .5-1.5 1.5-1.5h5.3v-51.9h-5.3c-1 0-1.5-.5-1.5-1.5v-5.1c0-1 .5-1.5 1.5-1.5h17.5c1.067 0 1.733.47 2 1.4l20.6 53.7 21.1-53.7c.267-.93.933-1.4 2-1.4h16.7c1 0 1.5.5 1.5 1.5v5.1c0 1-.5 1.5-1.5 1.5h-5.3v51.9h5.3c1 0 1.5.5 1.5 1.5v4.9c0 1-.5 1.5-1.5 1.5h-22c-1 0-1.5-.5-1.5-1.5v-4.9c0-1 .5-1.5 1.5-1.5h6v-42.7l-19.7 49.2c-.4.93-1.1 1.4-2.1 1.4Zm76.118-29.7v-3.5c0-4.73-1.333-7.7-4-8.9-1.267-.53-3.1-.8-5.5-.8-4.533 0-7.267 2.13-8.2 6.4-.2 1-.7 1.5-1.5 1.5h-6.4c-1.067 0-1.533-.5-1.4-1.5.267-4.87 2.233-8.43 5.9-10.7 3.667-2.27 8.333-3.4 14-3.4 11.933 0 17.9 5.47 17.9 16.4v26.3h4.3c1 0 1.5.5 1.5 1.5v4.9c0 1-.5 1.5-1.5 1.5h-11.8c-.867 0-1.367-.5-1.5-1.5l-.7-4.6c-3.6 4.87-8.8 7.3-15.6 7.3-4.267 0-7.8-1.1-10.6-3.3-2.8-2.27-4.2-5.87-4.2-10.8 0-6.47 2.7-10.9 8.1-13.3 4.467-2.07 9.8-3.2 16-3.4 1.267 0 3-.03 5.2-.1Zm.2 14.6v-7.7c-6.4 0-10.333.3-11.8.9-1.467.6-2.767 1.2-3.9 1.8-2.133 1.13-3.2 3.2-3.2 6.2 0 4.6 2.633 6.9 7.9 6.9 3.467 0 6.167-.8 8.1-2.4 1.933-1.67 2.9-3.57 2.9-5.7Zm37.388-26.2v25.2c0 3.13.4 5.4 1.2 6.8.8 1.4 2.3 2.1 4.5 2.1s4.334-.47 6.4-1.4c.734-.27 1.267 0 1.6.8l1.8 4.6c.067.2.1.5.1.9 0 .33-.333.7-1 1.1-3.2 1.6-7 2.4-11.4 2.4-5.933 0-9.833-1.53-11.7-4.6-1.333-2-2.1-3.93-2.3-5.8-.266-2.53-.4-5.2-.4-8v-24.1h-5.7c-1 0-1.5-.5-1.5-1.5v-5.2c0-1 .5-1.5 1.5-1.5h5.7V1024c0-1 .5-1.5 1.5-1.5h8.2c1 0 1.5.5 1.5 1.5v13.5h10.1c1 0 1.5.5 1.5 1.5v5.2c0 1-.5 1.5-1.5 1.5h-10.1Zm43.514 42.5c-7.933 0-13.766-2.3-17.5-6.9-3.666-4.67-5.5-10.8-5.5-18.4 0-7.67 1.967-14 5.9-19 3.934-5 9.6-7.5 17-7.5 3.667 0 6.8.7 9.4 2.1 2.667 1.33 4.7 3.17 6.1 5.5 2.667 4.53 4 9.77 4 15.7 0 2.8-.133 4.33-.4 4.6-.266.27-.766.4-1.5.4h-29.4c.334 4.8 1.5 8.53 3.5 11.2 2.067 2.6 5.6 3.9 10.6 3.9 3.667 0 7.434-.87 11.3-2.6.934-.47 1.6-.2 2 .8l1.9 4.6c.334.8.034 1.47-.9 2-4.4 2.4-9.9 3.6-16.5 3.6Zm-11.9-30.9h20.8c.134-8.33-3.133-12.5-9.8-12.5-3.933 0-6.733 1.27-8.4 3.8-1.6 2.47-2.466 5.37-2.6 8.7Z" fill="#000"/><path d="m246.142 546.858 150.716-150.716c7.81-7.81 20.474-7.81 28.284 0l150.716 150.716c7.81 7.81 7.81 20.474 0 28.284L425.142 725.858c-7.81 7.81-20.474 7.81-28.284 0L246.142 575.142c-7.81-7.81-7.81-20.474 0-28.284Z" fill="#F7081D"/><mask id="a" style="mask-type:alpha" maskUnits="userSpaceOnUse" x="411" y="390" width="171" height="342"><path fill="#D9D9D9" d="M411 390h171v342H411z"/></mask><g mask="url(#a)"><path d="m246.142 546.858 150.716-150.716c7.81-7.81 20.474-7.81 28.284 0l150.716 150.716c7.81 7.81 7.81 20.474 0 28.284L425.142 725.858c-7.81 7.81-20.474 7.81-28.284 0L246.142 575.142c-7.81-7.81-7.81-20.474 0-28.284Z" fill="#DC1021"/></g><path d="m83.535 366.464 42.929-42.928a5 5 0 0 1 7.072 0l42.928 42.928a5 5 0 0 1 0 7.072l-42.928 42.928a5 5 0 0 1-7.072 0l-42.928-42.928a5.001 5.001 0 0 1 0-7.072Z" fill="#F7081D"/><mask id="b" style="mask-type:alpha" maskUnits="userSpaceOnUse" x="130" y="322" width="48" height="96"><rect x="130" y="322.235" width="47.765" height="95.531" rx="5" fill="#D9D9D9"/></mask><g mask="url(#b)"><path d="m83.535 366.464 42.929-42.928a5 5 0 0 1 7.072 0l42.928 42.928a5 5 0 0 1 0 7.072l-42.928 42.928a5 5 0 0 1-7.072 0l-42.928-42.928a5.001 5.001 0 0 1 0-7.072Z" fill="#DC1021"/></g><path d="M61.773 223.1c0-22.6 13-40.8 39-54.6-10-5.8-17.5-12-22.5-18.6-5-6.8-7.5-15.7-7.5-26.7 0-16.2 5.9-28.7 17.7-37.5 11.8-9 26.3-13.5 43.5-13.5 17.4 0 30.9 4.1 40.5 12.3 9.6 8 14.4 17.8 14.4 29.4 0 11.4-2.9 20.7-8.7 27.9-5.6 7-13.7 14-24.3 21 16.2 7 27.5 14.4 33.9 22.2 6.4 7.6 9.6 17.9 9.6 30.9 0 17-6.2 30.7-18.6 41.1-12.4 10.4-29.6 15.6-51.6 15.6-21.8 0-38.2-4.5-49.2-13.5-10.8-9.2-16.2-21.2-16.2-36Zm102.3-3c0-10.8-4.9-19.4-14.7-25.8-7-4.6-15.4-9.1-25.2-13.5-20.4 11.8-30.6 25.2-30.6 40.2 0 18.6 11.7 27.9 35.1 27.9 23.6 0 35.4-9.6 35.4-28.8Zm-8.4-102.9c0-14.4-8-21.6-24-21.6-8.4 0-15.2 2-20.4 6-5.2 4-7.8 9.8-7.8 17.4 0 7.6 2.3 13.9 6.9 18.9 4.6 5 11.1 9.7 19.5 14.1 5.4-3.8 9.6-7 12.6-9.6 3.2-2.6 6.2-6.2 9-10.8 2.8-4.6 4.2-9.4 4.2-14.4Z" fill="#000"/></svg>

<svg width="822" height="1122" viewBox="0 0 822 1122" fill="none" xmlns="http://www.w3.org/2000/svg">
<rect width="822" height="1122" rx="50" fill="#F1F7EE"/>
<path d="M343.977 1087H337.377C336.377 1087 335.677 1086.53 335.277 1085.6L315.877 1036.3V1079.1H322.177C323.177 1079.1 323.677 1079.6 323.677 1080.6V1085.5C323.677 1086.5 323.177 1087 322.177 1087H301.877C300.877 1087 300.377 1086.5 300.377 1085.5V1080.6C300.377 1079.6 300.877 1079.1 301.877 1079.1H307.177V1027.2H301.877C300.877 1027.2 300.377 1026.7 300.377 1025.7V1020.6C300.377 1019.6 300.877 1019.1 301.877 1019.1H319.377C320.444 1019.1 321.11 1019.57 321.377 1020.5L341.977 1074.2L363.077 1020.5C363.344 1019.57 364.01 1019.1 365.077 1019.1H381.777C382.777 1019.1 383.277 1019.6 383.277 1020.6V1025.7C383.277 1026.7 382.777 1027.2 381.777 1027.2H376.477V1079.1H381.777C382.777 1079.1 383.277 1079.6 383.277 1080.6V1085.5C383.277 1086.5 382.777 1087 381.777 1087H359.777C358.777 1087 358.277 1086.5 358.277 1085.5V1080.6C358.277 1079.6 358.777 1079.1 359.777 1079.1H365.777V1036.4L346.077 1085.6C345.677 1086.53 344.977 1087 343.977 1087ZM420.095 1057.3V1053.8C420.095 1049.07 418.762 1046.1 416.095 1044.9C414.828 1044.37 412.995 1044.1 410.595 1044.1C406.062 1044.1 403.328 1046.23 402.395 1050.5C402.195 1051.5 401.695 1052 400.895 1052H394.495C393.428 1052 392.962 1051.5 393.095 1050.5C393.362 1045.63 395.328 1042.07 398.995 1039.8C402.662 1037.53 407.328 1036.4 412.995 1036.4C424.928 1036.4 430.895 1041.87 430.895 1052.8V1079.1H435.195C436.195 1079.1 436.695 1079.6 436.695 1080.6V1085.5C436.695 1086.5 436.195 1087 435.195 1087H423.395C422.528 1087 422.028 1086.5 421.895 1085.5L421.195 1080.9C417.595 1085.77 412.395 1088.2 405.595 1088.2C401.328 1088.2 397.795 1087.1 394.995 1084.9C392.195 1082.63 390.795 1079.03 390.795 1074.1C390.795 1067.63 393.495 1063.2 398.895 1060.8C403.362 1058.73 408.695 1057.6 414.895 1057.4C416.162 1057.4 417.895 1057.37 420.095 1057.3ZM420.295 1071.9V1064.2C413.895 1064.2 409.962 1064.5 408.495 1065.1C407.028 1065.7 405.728 1066.3 404.595 1066.9C402.462 1068.03 401.395 1070.1 401.395 1073.1C401.395 1077.7 404.028 1080 409.295 1080C412.762 1080 415.462 1079.2 417.395 1077.6C419.328 1075.93 420.295 1074.03 420.295 1071.9ZM457.683 1045.7V1070.9C457.683 1074.03 458.083 1076.3 458.883 1077.7C459.683 1079.1 461.183 1079.8 463.383 1079.8C465.583 1079.8 467.717 1079.33 469.783 1078.4C470.517 1078.13 471.05 1078.4 471.383 1079.2L473.183 1083.8C473.25 1084 473.283 1084.3 473.283 1084.7C473.283 1085.03 472.95 1085.4 472.283 1085.8C469.083 1087.4 465.283 1088.2 460.883 1088.2C454.95 1088.2 451.05 1086.67 449.183 1083.6C447.85 1081.6 447.083 1079.67 446.883 1077.8C446.617 1075.27 446.483 1072.6 446.483 1069.8V1045.7H440.783C439.783 1045.7 439.283 1045.2 439.283 1044.2V1039C439.283 1038 439.783 1037.5 440.783 1037.5H446.483V1024C446.483 1023 446.983 1022.5 447.983 1022.5H456.183C457.183 1022.5 457.683 1023 457.683 1024V1037.5H467.783C468.783 1037.5 469.283 1038 469.283 1039V1044.2C469.283 1045.2 468.783 1045.7 467.783 1045.7H457.683ZM501.197 1088.2C493.264 1088.2 487.431 1085.9 483.697 1081.3C480.031 1076.63 478.197 1070.5 478.197 1062.9C478.197 1055.23 480.164 1048.9 484.097 1043.9C488.031 1038.9 493.697 1036.4 501.097 1036.4C504.764 1036.4 507.897 1037.1 510.497 1038.5C513.164 1039.83 515.197 1041.67 516.597 1044C519.264 1048.53 520.597 1053.77 520.597 1059.7C520.597 1062.5 520.464 1064.03 520.197 1064.3C519.931 1064.57 519.431 1064.7 518.697 1064.7H489.297C489.631 1069.5 490.797 1073.23 492.797 1075.9C494.864 1078.5 498.397 1079.8 503.397 1079.8C507.064 1079.8 510.831 1078.93 514.697 1077.2C515.631 1076.73 516.297 1077 516.697 1078L518.597 1082.6C518.931 1083.4 518.631 1084.07 517.697 1084.6C513.297 1087 507.797 1088.2 501.197 1088.2ZM489.297 1057.3H510.097C510.231 1048.97 506.964 1044.8 500.297 1044.8C496.364 1044.8 493.564 1046.07 491.897 1048.6C490.297 1051.07 489.431 1053.97 489.297 1057.3Z" fill="black"/>
<path d="M246.142 546.858L396.858 396.142C404.668 388.332 417.332 388.332 425.142 396.142L575.858 546.858C583.668 554.668 583.668 567.332 575.858 575.142L425.142 725.858C417.332 733.668 404.668 733.668 396.858 725.858L246.142 575.142C238.332 567.332 238.332 554.668 246.142 546.858Z" fill="#F7081D"/>
<mask id="mask0_1021_565" style="mask-type:alpha" maskUnits="userSpaceOnUse" x="411" y="390" width="171" height="342">
<rect x="411" y="390" width="171" height="342" fill="#D9D9D9"/>
</mask>
<g mask="url(#mask0_1021_565)">
<path d="M246.142 546.858L396.858 396.142C404.668 388.332 417.332 388.332 425.142 396.142L575.858 546.858C583.668 554.668 583.668 567.332 575.858 575.142L425.142 725.858C417.332 733.668 404.668 733.668 396.858 725.858L246.142 575.142C238.332 567.332 238.332 554.668 246.142 546.858Z" fill="#DC1021"/>
</g>
<path d="M83.5355 366.464L126.464 323.536C128.417 321.583 131.583 321.583 133.536 323.536L176.464 366.464C178.417 368.417 178.417 371.583 176.464 373.536L133.536 416.464C131.583 418.417 128.417 418.417 126.464 416.464L83.5355 373.536C81.5829 371.583 81.5829 368.417 83.5355 366.464Z" fill="#F7081D"/>
<mask id="mask1_1021_565" style="mask-type:alpha" maskUnits="userSpaceOnUse" x="130" y="322" width="48" height="96">
<rect x="130" y="322.235" width="47.7654" height="95.5307" rx="5" fill="#D9D9D9"/>
</mask>
<g mask="url(#mask1_1021_565)">
<path d="M83.5355 366.464L126.464 323.536C128.417 321.583 131.583 321.583 133.536 323.536L176.464 366.464C178.417 368.417 178.417 371.583 176.464 373.536L133.536 416.464C131.583 418.417 128.417 418.417 126.464 416.464L83.5355 373.536C81.5829 371.583 81.5829 368.417 83.5355 366.464Z" fill="#DC1021"/>
</g>
<path d="M61.773 223.1C61.773 200.5 74.773 182.3 100.773 168.5C90.773 162.7 83.273 156.5 78.273 149.9C73.273 143.1 70.773 134.2 70.773 123.2C70.773 107 76.673 94.5 88.473 85.7C100.273 76.7 114.773 72.2 131.973 72.2C149.373 72.2 162.873 76.3 172.473 84.5C182.073 92.5 186.873 102.3 186.873 113.9C186.873 125.3 183.973 134.6 178.173 141.8C172.573 148.8 164.473 155.8 153.873 162.8C170.073 169.8 181.373 177.2 187.773 185C194.173 192.6 197.373 202.9 197.373 215.9C197.373 232.9 191.173 246.6 178.773 257C166.373 267.4 149.173 272.6 127.173 272.6C105.373 272.6 88.973 268.1 77.973 259.1C67.173 249.9 61.773 237.9 61.773 223.1ZM164.073 220.1C164.073 209.3 159.173 200.7 149.373 194.3C142.373 189.7 133.973 185.2 124.173 180.8C103.773 192.6 93.573 206 93.573 221C93.573 239.6 105.273 248.9 128.673 248.9C152.273 248.9 164.073 239.3 164.073 220.1ZM155.673 117.2C155.673 102.8 147.673 95.6 131.673 95.6C123.273 95.6 116.473 97.6 111.273 101.6C106.073 105.6 103.473 111.4 103.473 119C103.473 126.6 105.773 132.9 110.373 137.9C114.973 142.9 121.473 147.6 129.873 152C135.273 148.2 139.473 145 142.473 142.4C145.673 139.8 148.673 136.2 151.473 131.6C154.273 127 155.673 122.2 155.673 117.2Z" fill="black"/>
</svg>
